X:841
T:Bill Sullivan's Polka
S:Bill Stewart, Aberfeldy
Z:Nigel Gatherer
M:2/4
L:1/8
K:A
a2 a>f | ec a>f | ec a>f | ec BA  |
a2 a>f | ec a>e | ce B>c | BA A2 :|
ce ed/c/ | df fe/d/ | ce eA/B/ | cB B>d |
ce ed/c/ | df fe/d/ | ce B>c | BA A2 :|
<end>
<start>
